X:43
T:Waiting for Nancy
R: reel
M: C|
L: 1/8
F:http://users.rcn.com/ladysmyth/tunes/WaitingforNancy.abc 2007-04-27 21:43:48 UT
K: D
a|: "A"b2a2 b2a2 | b2a2 e2ef | "G" g2f2 e2ef | gagf e3a|
  "A"b2a2 b2a2 | b2a2 e3f | "G" g2f2 "A"edc2 | "D(G)"d3c d4 :|
|: "C"=c4 c2ef | g2f2 e2ef | "A7"g2f2 e2g2- | gagf e4 |
"C"=c4 c2ef | g2f2 e2ef | "C"gagf "A7"edc2 | "D"d3c d4 :|
